X: 39278
T: Táim In Arrears
R: slip jig
M: 9/8
K: Adorian
|:eaa aba ged|eaa age g2a|
b2a aba ged|1 edB gdB AB/c/d:|2 edB gdB A3||
|:BAA ABA G2A|BAA AB/c/d e2d|
cge dBA G2A|1 BeB dBA A2A:|2 BeB dBA AB/c/d||

